X:42
T: FIROWE D GLOCK ISCH DROWE
N: K0312
O: Europa, Mitteleuropa, Deutschland; Frankreich, Ober - Elsass
R: Kinder -, Kose -, Scherz - Lied
M: 2/4
L: 1/16
K: F
 | c4A2F2 | c2B2A2F2 |
c2d2c2d2 | c2B2A2F2 |
c4c2d2 | c4A4 |
c2d2c2d2 | c4A4 |
c4c2d2 | c4A4 |
ddccBB | A4F4

@@@ Tune index: 7379
